X: 25448
T: Marcha Processional Du Corpus De Pontevedra
R: waltz
M: 3/4
K: Gmajor
Bc cB cd|B2 BA Bc|A2 AF Ae|dc BA G2|
Bc cB cd|B2 BA Bc|A2 AG AB|G4 z2:|
|:fg dB Gd|fg dB GB|dc cA FA|ed dB Gd|
fg dB Gd|fg dB GB|dc cA FA|G4 z2:|

